X: 19403
T: Jackie Daly's
R: reel
M: 4/4
K: Bminor
|:g|fedc BFFd|AFEF DEFA|Bcde f~B3|ABde ~f2e(d|~d2)cA BFFd|
AFEF DEFA|Bcde fgfe|1 dcAF D3:|2 dcAF D3A||
|:Bcdf ~f2bf|gfeg fedf|ecBc ABcd|ecaf eece|
Bcdf ~f2bf|gfeg fedf|ecac bcaf|1 gece d3c:|2 gece d3||

